brandFactory_export/2.Regular/Smartwifi smart wifi _2Regular.svg

<?xml version="1.0" encoding="UTF-8"?>
<svg width="24px" height="24px" viewBox="0 0 24 24" version="1.1" xmlns="http://www.w3.org/2000/svg" xmlns:xlink="http://www.w3.org/1999/xlink">
    <title>2.Regular/Smartwifi smart wifi _2Regular</title>
    <g id="Symbols" stroke="none" stroke-width="1" fill="none" fill-rule="evenodd">
        <g id="2.Regular/Smartwifi-smart-wifi-_2Regular" fill="#5CB615" fill-rule="nonzero">
            <path d="M22.1512605,9.24369748 C22.1781513,9.17647059 22.1680672,9.12268908 22.107563,9.06218487 L14.7663866,1.53613445 C14.6487395,1.41512605 14.3966387,1.41512605 14.2823529,1.53613445 L7.97983193,7.99663866 C8.87731092,8.0302521 9.56638655,8.28571429 10.0705882,8.79327731 C10.6084034,9.33781513 10.8705882,10.087395 10.8705882,11.0857143 L10.8705882,17.492437 L19.8151261,17.492437 C19.9932773,17.492437 20.1142857,17.3781513 20.1142857,17.2739496 L20.1142857,10.1411765 C20.1142857,9.73781513 20.4403361,9.40840336 20.8436975,9.40840336 L21.8689076,9.40840336 C22.0705882,9.40504202 22.1378151,9.28067227 22.1512605,9.24369748 Z M9.41176471,20.5210084 L9.41176471,11.0789916 C9.41176471,10.487395 9.28739496,10.0739496 9.03529412,9.81848739 C8.78319328,9.56302521 8.37310924,9.43865546 7.78151261,9.43865546 L3.08571429,9.43865546 C2.50420168,9.43865546 2.09411765,9.56638655 1.83529412,9.82857143 C1.57983193,10.087395 1.45546218,10.497479 1.45546218,11.0756303 L1.45546218,20.5176471 C1.45546218,21.1159664 1.57983193,21.5294118 1.83193277,21.7815126 C2.08403361,22.0336134 2.49411765,22.1546218 3.08571429,22.1546218 L7.78151261,22.1546218 C8.37310924,22.1546218 8.78319328,22.0336134 9.03193277,21.7815126 C9.28739496,21.5327731 9.41176471,21.1193277 9.41176471,20.5210084 L9.41176471,20.5210084 Z M23.1462185,8.03361345 C23.6168067,8.51428571 23.7512605,9.19663866 23.4957983,9.80840336 C23.2268908,10.4504202 22.5848739,10.8672269 21.8655462,10.8672269 L21.5663866,10.8672269 L21.5663866,17.2672269 C21.5663866,18.194958 20.7798319,18.9512605 19.8117647,18.9512605 L10.8672269,18.9512605 L10.8672269,20.5210084 C10.8672269,21.5294118 10.6016807,22.2823529 10.0571429,22.8268908 C9.52268908,23.3647059 8.77647059,23.6235294 7.78151261,23.6235294 L3.08571429,23.6235294 C2.0907563,23.6235294 1.34453782,23.3647059 0.806722689,22.8268908 C0.262184874,22.2857143 0,21.5327731 0,20.5243697 L0,11.0823529 C0,10.097479 0.262184874,9.3512605 0.8,8.80336134 C1.34453782,8.2487395 2.09411765,7.97983193 3.08571429,7.97983193 L5.95294118,7.97983193 L13.2403361,0.51092437 C13.902521,-0.168067227 15.1462185,-0.168067227 15.805042,0.51092437 L23.1462185,8.03361345 Z M5.43193277,19.5462185 C5.92941176,19.5462185 6.22857143,19.8487395 6.22857143,20.3495798 C6.22857143,20.594958 6.15798319,20.789916 6.02016807,20.9344538 C5.88235294,21.0789916 5.67731092,21.1529412 5.43193277,21.1529412 C5.18655462,21.1529412 4.98487395,21.0756303 4.84369748,20.9344538 C4.70588235,20.7932773 4.63529412,20.594958 4.63529412,20.3495798 C4.63865546,19.8453782 4.93445378,19.5462185 5.43193277,19.5462185 Z M14.702521,13.5529412 C14.9714286,13.5495798 14.9714286,13.4285714 14.9714286,13.3109244 C14.9714286,13.1932773 14.9714286,13.0722689 14.7495798,13.0655462 L14.6957983,13.0655462 C14.5042017,13.0655462 14.4907563,13.1630252 14.4907563,13.3042017 C14.487395,13.4521008 14.5042017,13.5529412 14.702521,13.5529412 L14.702521,13.5529412 Z M14.7630252,12.0941176 C15.3579832,12.1109244 15.9428571,12.4941176 15.9428571,13.3142857 C15.9428571,14.1378151 15.3579832,14.5176471 14.7764706,14.5310924 C14.1109244,14.5243697 13.5193277,14.1445378 13.5193277,13.3109244 C13.5193277,12.4773109 14.107563,12.097479 14.6890756,12.0941176 L14.7630252,12.0941176 L14.7630252,12.0941176 Z M14.6857143,6.28907563 C14.7764706,6.28235294 17.4722689,6.14453782 19.2840336,8.18487395 C19.4621849,8.38655462 19.4453782,8.69579832 19.2436975,8.87394958 C19.1529412,8.95798319 19.0352941,8.99831933 18.9210084,8.99831933 C18.789916,8.99831933 18.6554622,8.94453782 18.5579832,8.83697479 C17.0655462,7.15966387 14.7327731,7.26386555 14.7159664,7.26386555 C12.2386555,7.2907563 10.9411765,8.67563025 10.8907563,8.73277311 C10.7092437,8.93109244 10.4033613,8.94789916 10.205042,8.76302521 C10.0067227,8.58151261 9.99327731,8.27563025 10.1714286,8.07731092 C10.2420168,8.00336134 11.7915966,6.31932773 14.6857143,6.28907563 L14.6857143,6.28907563 Z M14.692437,8.22184874 C14.7798319,8.22184874 16.9210084,8.14117647 18.292437,9.68739496 C18.4705882,9.88907563 18.4537815,10.194958 18.2521008,10.3764706 C18.0537815,10.5546218 17.7445378,10.5378151 17.5663866,10.3361345 C16.4941176,9.13277311 14.7394958,9.18319328 14.7159664,9.19663866 C12.9512605,9.21680672 11.8991597,10.3495798 11.8890756,10.3596639 C11.794958,10.4672269 11.6605042,10.5176471 11.5294118,10.5176471 C11.4117647,10.5176471 11.297479,10.4739496 11.2033613,10.3932773 C11.005042,10.2117647 10.9882353,9.90588235 11.1663866,9.70756303 C11.2235294,9.65042017 12.5042017,8.24537815 14.692437,8.22184874 L14.692437,8.22184874 Z M14.7058824,10.1983193 C14.7462185,10.1915966 16.1915966,10.1411765 17.1159664,11.1865546 C17.2941176,11.3882353 17.2773109,11.6941176 17.0756303,11.8756303 C16.8773109,12.0537815 16.5680672,12.0369748 16.389916,11.8352941 C15.7747899,11.1462185 14.7361345,11.1596639 14.7294118,11.1731092 C13.6907563,11.1831933 13.092437,11.8252101 13.0655462,11.8521008 C12.9680672,11.9563025 12.8369748,12.010084 12.7058824,12.010084 C12.5882353,12.010084 12.4739496,11.9663866 12.3798319,11.8857143 C12.1815126,11.7042017 12.1680672,11.3983193 12.3462185,11.2 C12.3798319,11.1563025 13.2436975,10.2151261 14.7058824,10.1983193 L14.7058824,10.1983193 Z" id="Smartwifi-smart-wifi-_2Regular"></path>
        </g>
    </g>
</svg>

<svg width="24" height="24" viewBox="0 0 24 24" xmlns="http://www.w3.org/2000/svg"><path d="M22.151 9.244c.027-.068.017-.121-.043-.182l-7.342-7.526c-.117-.12-.37-.12-.484 0L7.98 7.996c.897.034 1.586.29 2.09.797.538.545.8 1.294.8 2.293v6.406h8.945c.178 0 .3-.114.3-.218V10.14c0-.403.325-.733.729-.733h1.025c.202-.003.269-.127.282-.164zM9.411 20.52v-9.442c0-.592-.124-1.005-.376-1.26-.252-.256-.662-.38-1.253-.38H3.086c-.582 0-.992.127-1.25.39-.256.258-.38.668-.38 1.247v9.442c0 .598.124 1.011.376 1.264.252.252.662.373 1.254.373h4.696c.591 0 1.001-.121 1.25-.373.255-.25.38-.663.38-1.261zM23.147 8.034c.47.48.605 1.163.35 1.774a1.754 1.754 0 01-1.63 1.06h-.3v6.4c0 .927-.786 1.683-1.754 1.683h-8.945v1.57c0 1.008-.265 1.761-.81 2.306-.534.538-1.28.797-2.275.797H3.086c-.995 0-1.741-.26-2.28-.797C.263 22.286 0 21.533 0 20.524v-9.442c0-.985.262-1.73.8-2.279.545-.554 1.294-.823 2.286-.823h2.867L13.24.51c.663-.678 1.906-.678 2.565 0l7.341 7.524zM5.432 19.546c.497 0 .797.303.797.804 0 .245-.071.44-.209.584-.138.145-.343.219-.588.219-.245 0-.447-.077-.588-.219-.138-.14-.209-.339-.209-.584.004-.505.3-.804.797-.804zm9.27-5.993c.27-.003.27-.124.27-.242s0-.239-.222-.245h-.054c-.192 0-.205.097-.205.238-.004.148.013.249.212.249zm.061-1.459c.595.017 1.18.4 1.18 1.22 0 .824-.585 1.204-1.167 1.217-.665-.007-1.257-.386-1.257-1.22s.589-1.214 1.17-1.217h.074zm-.077-5.805c.09-.007 2.786-.144 4.598 1.896a.489.489 0 01-.726.652c-1.492-1.677-3.825-1.573-3.842-1.573-2.477.027-3.775 1.412-3.825 1.469a.488.488 0 01-.72-.655c.071-.075 1.62-1.759 4.515-1.789zm.006 1.933c.088 0 2.229-.08 3.6 1.465a.489.489 0 01-.04.69.485.485 0 01-.686-.04c-1.072-1.204-2.827-1.154-2.85-1.14-1.765.02-2.817 1.153-2.827 1.163a.475.475 0 01-.36.158.488.488 0 01-.363-.81c.058-.058 1.338-1.463 3.526-1.486zm.014 1.976c.04-.006 1.486-.057 2.41.989a.489.489 0 01-.04.689.485.485 0 01-.686-.04c-.615-.69-1.654-.676-1.66-.663-1.04.01-1.638.652-1.664.68a.492.492 0 01-.686.033.488.488 0 01-.034-.686c.034-.044.898-.985 2.36-1.002z" fill="#5CB615" fill-rule="nonzero"/></svg>
